X: 33210
T: Providence, The
R: reel
M: 4/4
K: Dmajor
E3 F DEFA|d2 fd gdfd|edBd AdFA|B/c/d AF GFED|
E2 EF DEFA|d2 fd gdfd|edBd A2 FA|B/c/d AG FDDF|
E3F DEFA|d2 fd gdfd|edBd A2 FA|B/c/d AF GFED|
EDCE DEFA|d2 fd gdfd|edBd AdFA|B/c/d AG FDDe||
|:fd d2 fdad|fddf ecAe|fd d2 faae|ceag fdde|
fgaf gfec|dBAF G2FG|A2 ^GB ABde|faeg fd d2:|

